modules/hawcons-stroke/icons/file-numbers.svg

<?xml version="1.0" encoding="UTF-8" standalone="no"?>
<svg width="32px" height="32px" viewBox="0 0 32 32" version="1.1" xmlns="http://www.w3.org/2000/svg" xmlns:xlink="http://www.w3.org/1999/xlink" xmlns:sketch="http://www.bohemiancoding.com/sketch/ns">
    <!-- Generator: Sketch 3.0.3 (7891) - http://www.bohemiancoding.com/sketch -->
    <title>icon 1 file numbers</title>
    <desc>Created with Sketch.</desc>
    <defs></defs>
    <g id="Page-1" stroke="none" stroke-width="1" fill="none" fill-rule="evenodd" sketch:type="MSPage">
        <g id="icon-1-file-numbers" sketch:type="MSArtboardGroup" fill="#929292">
            <path d="M9,15 L9,20 L8,20 L8,13 L9,13 L12,18 L12,13 L13,13 L13,20 L12,20 L9,15 L9,15 Z M18,13 L19,13 L19,17.9940809 C19,19.1134452 18.102384,20 16.9951185,20 L16.0048815,20 C14.8938998,20 14,19.1019194 14,17.9940809 L14,13 L15,13 L15,17.9970707 C15,18.5509732 15.4426603,19 15.9989566,19 L17.0010434,19 C17.5527519,19 18,18.5621186 18,17.9970707 L18,13 L18,13 L18,13 Z M22.5,16 L21,13 L20.5,13 L20,13 L20,20 L21,20 L21,15 L22,17 L22.5,17 L23,17 L24,15 L24,20 L25,20 L25,13 L24.5,13 L24,13 L22.5,16 L22.5,16 Z M8.00684834,10 C6.34621185,10 5,11.3422643 5,12.9987856 L5,20.0012144 C5,21.6573979 6.33599155,23 8.00684834,23 L24.9931517,23 C26.6537881,23 28,21.6577357 28,20.0012144 L28,12.9987856 C28,11.3426021 26.6640085,10 24.9931517,10 L8.00684834,10 L8.00684834,10 Z M7.99456145,11 C6.89299558,11 6,11.9001762 6,12.992017 L6,20.007983 C6,21.1081436 6.90234375,22 7.99456145,22 L25.0054385,22 C26.1070044,22 27,21.0998238 27,20.007983 L27,12.992017 C27,11.8918564 26.0976562,11 25.0054385,11 L7.99456145,11 L7.99456145,11 Z" id="file-numbers" sketch:type="MSShapeGroup"></path>
        </g>
    </g>
</svg>

<svg width="32" height="32" viewBox="0 0 32 32" xmlns="http://www.w3.org/2000/svg"><path d="M9 15v5H8v-7h1l3 5v-5h1v7h-1l-3-5zm9-2h1v4.994c0 1.12-.898 2.006-2.005 2.006h-.99A2.003 2.003 0 0 1 14 17.994V13h1v4.997A.998.998 0 0 0 15.999 19h1.002A.994.994 0 0 0 18 17.997V13zm4.5 3L21 13h-1v7h1v-5l1 2h1l1-2v5h1v-7h-1l-1.5 3zM8.007 10A3.003 3.003 0 0 0 5 12.999V20A2.996 2.996 0 0 0 8.007 23h16.986A3.003 3.003 0 0 0 28 20.001V13A2.996 2.996 0 0 0 24.993 10H8.007zm-.012 1C6.893 11 6 11.9 6 12.992v7.016A2 2 0 0 0 7.995 22h17.01C26.107 22 27 21.1 27 20.008v-7.016A2 2 0 0 0 25.005 11H7.995z" fill="#929292" fill-rule="evenodd"/></svg>
